public/images/360-learning-logo.svg

<svg viewBox="0 0 111 14"><path fill="#999" d="M4.4 2.7c-.8 0-1.4.3-1.7 1.2-.2.6-.6.8-.9.8H.9c-.1 0-.7-.1-.7-1C.2 1.4 2.3 0 4.2 0h.9c2.3 0 4.2 1 4.2 4.2 0 1-.3 2-1 2.7.8.6 1.1 1.5 1.1 2.7 0 3-1.5 4.1-4 4.1H4c-2 0-4-1.4-4-3.8 0-.9.5-1 .7-1h.8c.4 0 .7.2 1 1 .3.7.9 1.1 1.7 1.1h1c1.1 0 1.6-.3 1.6-1.4 0-1.1-.5-1.5-1.6-1.5H4c-.4 0-.7-.4-.7-.9v-.7c0-.5.3-.9.6-.9h1c1.3 0 1.8-.4 1.8-1.5 0-1-.5-1.4-1.8-1.4h-.5m11.7 2.5c2.5 0 4 1.1 4 4.2 0 3.2-1.5 4.3-4 4.3h-1.5c-2.5 0-4-1.1-4-4.7V4.9c0-3.7 1.5-4.9 3.9-4.9h1.8c2 0 3.6 1.4 3.6 3.3 0 .9-.5 1.1-.7 1.1h-.8c-.4 0-.7-.3-1-.9-.2-.5-.7-.8-1.4-.8h-1.2c-1.1 0-1.6.4-1.6 2.2v.3h2.9zm-2.9 2.7V9c0 1.7.5 2 1.6 2h1c1.1 0 1.7-.3 1.7-1.6 0-1.2-.6-1.5-1.7-1.5h-2.6zM26.7 0c2.7 0 4.9 1.7 4.9 6.9 0 5.1-2.2 6.8-4.9 6.8h-.5c-2.8 0-5-1.7-5-6.8 0-5.2 2.2-6.9 5-6.9h.5zm-2.9 6.9c0 3.1 1.2 4.1 2.6 4.1 1.5 0 2.6-1 2.6-4.1 0-3.2-1.1-4.2-2.6-4.2-1.4 0-2.6 1-2.6 4.2zM42.6 11h-6.1V1c0-.5-.3-.9-.6-.9h-1.4c-.3 0-.6.4-.6.9v11.8c0 .5.3.9.6.9h8.1c.3 0 .6-.4.6-.9v-.9c0-.5-.3-.9-.6-.9m6.1-7c-3.2 0-5.1 1.8-5.1 4.9 0 3.2 1.9 4.9 5.1 4.9 2.8 0 4.7-.6 4.7-2.4 0-.3-.2-.6-.5-.6h-1.3c-.5 0-.8.2-1 .5-.3.4-1 .6-1.7.6-1.5 0-2.1-.6-2.3-2.1h6.6c.3 0 .6-.2.6-.5v-.5c0-3.1-2-4.8-5.1-4.8zm-2.1 4c.1-1.3.8-2 2.1-2s1.9.7 2 2h-4.1zm13.5-4c-2.9 0-4.8.7-4.8 2.5 0 .3.2.5.5.5h1.3c.5 0 .8-.1 1-.4.3-.4 1-.6 1.7-.6 1.2 0 1.8.4 1.8 1.8h-2.9c-2.3 0-4.1 1-4.1 3s1.8 3 4.1 3c1.4 0 2.4-.4 3.2-.9v.2c0 .3.2.6.5.6h1.7c.3 0 .5-.3.5-.6V7.8c0-2.7-2-3.8-4.5-3.8zm1.5 7.1c-.6.4-1.5.8-2.6.8-.9 0-1.4-.5-1.4-1.1 0-.6.5-1 1.3-1h2.7v1.3zM72.7 4c-2 0-2.9.6-3.9 1.3v-.6c0-.3-.2-.5-.5-.5h-2c-.3 0-.5.2-.5.5v8.4c0 .3.2.6.5.6h2c.3 0 .5-.3.5-.6V7.6c.7-.7 1.4-1.3 2.3-1.3.4 0 .9.1 1.3.1h.3c.3 0 .5-.2.5-.5V4.6c0-.3-.2-.6-.5-.6m7.7 0c-1.3 0-2.2.6-3 1.3v-.6c0-.3-.2-.5-.6-.5h-1.9c-.3 0-.5.2-.5.5v8.4c0 .3.2.6.5.6h1.9c.4 0 .6-.3.6-.6V7.4c.6-.7 1.5-1.3 2.3-1.3 1 0 1.7.6 1.7 2.1v4.9c0 .3.2.6.5.6h2c.3 0 .5-.3.5-.6V8.2c0-3-1.6-4.2-4-4.2m5.7.4c-.3 0-.6.2-.6.5v8.2c0 .3.3.6.6.6H88c.3 0 .6-.3.6-.6V4.9c0-.3-.3-.5-.6-.5h-1.9zM87.6 1h-1.1c-.6 0-1 .4-1 1v.3c0 .6.4 1 1 1h1.1c.6 0 1-.4 1-1V2c0-.6-.4-1-1-1m8.1 3c-1.3 0-2.2.6-3 1.3v-.6c0-.3-.2-.5-.5-.5h-2c-.3 0-.5.2-.5.5v8.4c0 .3.2.6.5.6h2c.3 0 .5-.3.5-.6V7.4c.6-.7 1.5-1.3 2.3-1.3 1 0 1.7.6 1.7 2.1v4.9c0 .3.2.6.5.6h2c.3 0 .5-.3.5-.6V8.2c0-3-1.6-4.2-4-4.2m14.4 4.2h-3c-.5 0-.9.4-.9.9v.5c0 .4.4.8.9.8h1.1c-.1.5-.4 1-1.6 1h-1.2c-1.2 0-1.7-.4-1.7-2.5s.4-2.6 2-2.6h1.1c.7 0 1.1.2 1.3.5.3.5.6.8 1.1.8h.7c.3 0 .9-.3.9-1 0-1.6-2-2.6-3.8-2.6h-1.4c-3.1 0-4.8 1.6-4.8 4.9 0 3.1 1.6 4.8 4.5 4.8h1.4c2.8 0 4.3-1.4 4.3-3.9v-.7c0-.5-.4-.9-.9-.9"/></svg>

<svg xmlns="http://www.w3.org/2000/svg" width="111" height="14" viewBox="0 0 111 14"><title>360 Learning</title><g fill="none"><g fill="#999"><path d="M4.4 2.7C3.6 2.7 3 3 2.7 3.9 2.5 4.5 2.1 4.7 1.8 4.7L0.9 4.7C0.8 4.7 0.2 4.6 0.2 3.7 0.2 1.4 2.3 0 4.2 0L5.1 0C7.4 0 9.3 1 9.3 4.2 9.3 5.2 9 6.2 8.3 6.9 9.1 7.5 9.4 8.4 9.4 9.6 9.4 12.6 7.9 13.7 5.4 13.7L4 13.7C2 13.7 0 12.3 0 9.9 0 9 0.5 8.9 0.7 8.9L1.5 8.9C1.9 8.9 2.2 9.1 2.5 9.9 2.8 10.6 3.4 11 4.2 11L5.2 11C6.3 11 6.8 10.7 6.8 9.6 6.8 8.5 6.3 8.1 5.2 8.1L4 8.1C3.6 8.1 3.3 7.7 3.3 7.2L3.3 6.5C3.3 6 3.6 5.6 3.9 5.6L4.9 5.6C6.2 5.6 6.7 5.2 6.7 4.1 6.7 3.1 6.2 2.7 4.9 2.7L4.4 2.7"/><path d="M16.1 5.2C18.6 5.2 20.1 6.3 20.1 9.4 20.1 12.6 18.6 13.7 16.1 13.7L14.6 13.7C12.1 13.7 10.6 12.6 10.6 9L10.6 4.9C10.6 1.2 12.1 0 14.5 0L16.3 0C18.3 0 19.9 1.4 19.9 3.3 19.9 4.2 19.4 4.4 19.2 4.4L18.4 4.4C18 4.4 17.7 4.1 17.4 3.5 17.2 3 16.7 2.7 16 2.7L14.8 2.7C13.7 2.7 13.2 3.1 13.2 4.9L13.2 5.2 16.1 5.2 16.1 5.2ZM13.2 7.9L13.2 9C13.2 10.7 13.7 11 14.8 11L15.8 11C16.9 11 17.5 10.7 17.5 9.4 17.5 8.2 16.9 7.9 15.8 7.9L13.2 7.9 13.2 7.9Z"/><path d="M26.7 0C29.4 0 31.6 1.7 31.6 6.9 31.6 12 29.4 13.7 26.7 13.7L26.2 13.7C23.4 13.7 21.2 12 21.2 6.9 21.2 1.7 23.4 0 26.2 0L26.7 0 26.7 0ZM23.8 6.9C23.8 10 25 11 26.4 11 27.9 11 29 10 29 6.9 29 3.7 27.9 2.7 26.4 2.7 25 2.7 23.8 3.7 23.8 6.9L23.8 6.9Z"/><path d="M42.6 11L36.5 11 36.5 1C36.5 0.5 36.2 0.1 35.9 0.1L34.5 0.1C34.2 0.1 33.9 0.5 33.9 1L33.9 12.8C33.9 13.3 34.2 13.7 34.5 13.7L42.6 13.7C42.9 13.7 43.2 13.3 43.2 12.8L43.2 11.9C43.2 11.4 42.9 11 42.6 11"/><path d="M48.7 4C45.5 4 43.6 5.8 43.6 8.9 43.6 12.1 45.5 13.8 48.7 13.8 51.5 13.8 53.4 13.2 53.4 11.4 53.4 11.1 53.2 10.8 52.9 10.8L51.6 10.8C51.1 10.8 50.8 11 50.6 11.3 50.3 11.7 49.6 11.9 48.9 11.9 47.4 11.9 46.8 11.3 46.6 9.8L53.2 9.8C53.5 9.8 53.8 9.6 53.8 9.3L53.8 8.8C53.8 5.7 51.8 4 48.7 4L48.7 4ZM46.6 8C46.7 6.7 47.4 6 48.7 6 50 6 50.6 6.7 50.7 8L46.6 8 46.6 8Z"/><path d="M60.1 4C57.2 4 55.3 4.7 55.3 6.5 55.3 6.8 55.5 7 55.8 7L57.1 7C57.6 7 57.9 6.9 58.1 6.6 58.4 6.2 59.1 6 59.8 6 61 6 61.6 6.4 61.6 7.8L58.7 7.8C56.4 7.8 54.6 8.8 54.6 10.8 54.6 12.8 56.4 13.8 58.7 13.8 60.1 13.8 61.1 13.4 61.9 12.9L61.9 13.1C61.9 13.4 62.1 13.7 62.4 13.7L64.1 13.7C64.4 13.7 64.6 13.4 64.6 13.1L64.6 7.8C64.6 5.1 62.6 4 60.1 4L60.1 4ZM61.6 11.1C61 11.5 60.1 11.9 59 11.9 58.1 11.9 57.6 11.4 57.6 10.8 57.6 10.2 58.1 9.8 58.9 9.8L61.6 9.8 61.6 11.1 61.6 11.1Z"/><path d="M72.7 4C70.7 4 69.8 4.6 68.8 5.3L68.8 4.7C68.8 4.4 68.6 4.2 68.3 4.2L66.3 4.2C66 4.2 65.8 4.4 65.8 4.7L65.8 13.1C65.8 13.4 66 13.7 66.3 13.7L68.3 13.7C68.6 13.7 68.8 13.4 68.8 13.1L68.8 7.6C69.5 6.9 70.2 6.3 71.1 6.3 71.5 6.3 72 6.4 72.4 6.4L72.7 6.4C73 6.4 73.2 6.2 73.2 5.9L73.2 4.6C73.2 4.3 73 4 72.7 4"/><path d="M80.4 4C79.1 4 78.2 4.6 77.4 5.3L77.4 4.7C77.4 4.4 77.2 4.2 76.8 4.2L74.9 4.2C74.6 4.2 74.4 4.4 74.4 4.7L74.4 13.1C74.4 13.4 74.6 13.7 74.9 13.7L76.8 13.7C77.2 13.7 77.4 13.4 77.4 13.1L77.4 7.4C78 6.7 78.9 6.1 79.7 6.1 80.7 6.1 81.4 6.7 81.4 8.2L81.4 13.1C81.4 13.4 81.6 13.7 81.9 13.7L83.9 13.7C84.2 13.7 84.4 13.4 84.4 13.1L84.4 8.2C84.4 5.2 82.8 4 80.4 4"/><path d="M86.1 4.4C85.8 4.4 85.5 4.6 85.5 4.9L85.5 13.1C85.5 13.4 85.8 13.7 86.1 13.7L88 13.7C88.3 13.7 88.6 13.4 88.6 13.1L88.6 4.9C88.6 4.6 88.3 4.4 88 4.4L86.1 4.4Z"/><path d="M87.6 1L86.5 1C85.9 1 85.5 1.4 85.5 2L85.5 2.3C85.5 2.9 85.9 3.3 86.5 3.3L87.6 3.3C88.2 3.3 88.6 2.9 88.6 2.3L88.6 2C88.6 1.4 88.2 1 87.6 1"/><path d="M95.7 4C94.4 4 93.5 4.6 92.7 5.3L92.7 4.7C92.7 4.4 92.5 4.2 92.2 4.2L90.2 4.2C89.9 4.2 89.7 4.4 89.7 4.7L89.7 13.1C89.7 13.4 89.9 13.7 90.2 13.7L92.2 13.7C92.5 13.7 92.7 13.4 92.7 13.1L92.7 7.4C93.3 6.7 94.2 6.1 95 6.1 96 6.1 96.7 6.7 96.7 8.2L96.7 13.1C96.7 13.4 96.9 13.7 97.2 13.7L99.2 13.7C99.5 13.7 99.7 13.4 99.7 13.1L99.7 8.2C99.7 5.2 98.1 4 95.7 4"/><path d="M110.1 8.2L107.1 8.2C106.6 8.2 106.2 8.6 106.2 9.1L106.2 9.6C106.2 10 106.6 10.4 107.1 10.4L108.2 10.4C108.1 10.9 107.8 11.4 106.6 11.4L105.4 11.4C104.2 11.4 103.7 11 103.7 8.9 103.7 6.8 104.1 6.3 105.7 6.3L106.8 6.3C107.5 6.3 107.9 6.5 108.1 6.8 108.4 7.3 108.7 7.6 109.2 7.6L109.9 7.6C110.2 7.6 110.8 7.3 110.8 6.6 110.8 5 108.8 4 107 4L105.6 4C102.5 4 100.8 5.6 100.8 8.9 100.8 12 102.4 13.7 105.3 13.7L106.7 13.7C109.5 13.7 111 12.3 111 9.8L111 9.1C111 8.6 110.6 8.2 110.1 8.2"/></g></g></svg>
